ui/StatusQ/src/assets/img/icons/chatEmptyHeader.svg

<svg fill="none" height="50" viewBox="0 0 66 50" width="66" xmlns="http://www.w3.org/2000/svg" xmlns:xlink="http://www.w3.org/1999/xlink"><radialGradient id="a" cx="0" cy="0" gradientTransform="matrix(-11.62513198 16.87489191 -21.90707105 -15.09180584 24.125 4.875)" gradientUnits="userSpaceOnUse" r="1"><stop offset="0" stop-color="#ffd764"/><stop offset="1" stop-color="#ffb746"/></radialGradient><path d="m0 0h66v50h-66z"/><path d="m8 38c0-6.6274 5.3726-12 12-12h9.0003c1.6568 0 2.9997 1.341 2.9997 2.9979v9.0021c0 6.6274-5.3726 12-12 12s-12-5.3726-12-12z" fill="#7cda00"/><path d="m19.2071 31h6.7929c.5523 0 1 .4477 1 1v6.7929c0 .4454-.5386.6685-.8536.3535l-2.1967-2.1967c-.251-.251-.6556-.2585-.9158-.0169l-5.8277 5.4115c-.3942.366-1.0073.3546-1.3876-.0257l-.1372-.1372c-.3803-.3803-.3917-.9934-.0257-1.3876l5.4115-5.8277c.2416-.2602.2341-.6648-.0169-.9158l-2.1967-2.1967c-.315-.315-.0919-.8536.3535-.8536z" fill="#fff"/><path d="m58 38c0-6.6274-5.3726-12-12-12-1.918 0-6.1153 0-9.0003 0-1.6568 0-2.9997 1.341-2.9997 2.9979v9.0021c0 6.6274 5.3726 12 12 12s12-5.3726 12-12z" fill="#fe8f59"/><path d="m43.2071 43h6.7929c.5523 0 1-.4477 1-1v-6.7929c0-.4454-.5386-.6685-.8536-.3535l-2.1967 2.1967c-.251.251-.6556.2585-.9158.0169l-5.8277-5.4115c-.3942-.366-1.0073-.3546-1.3876.0257l-.1372.1372c-.3803.3803-.3917.9934-.0257 1.3876l5.4115 5.8277c.2416.2602.2341.6648-.0169.9158l-2.1967 2.1967c-.315.315-.0919.8536.3535.8536z" fill="#fff"/><path d="m8 12c0 6.6274 5.3726 12 12 12h9.0003c1.6568 0 2.9997-1.341 2.9997-2.9979 0-2.7836 0-6.8173 0-9.0021 0-6.62742-5.3726-12-12-12s-12 5.37258-12 12z" fill="#eceffc"/><path d="m32 12v9.0003c0 1.6568-1.341 2.9997-2.9979 2.9997-2.7836 0-6.8173 0-9.0021 0-6.6274 0-12-5.3726-12-12 0-6.62742 5.3726-12 12-12s12 5.37258 12 12z" fill="#ffd764"/><path d="m32 12v9.0003c0 1.6568-1.341 2.9997-2.9979 2.9997-2.7836 0-6.8173 0-9.0021 0-6.6274 0-12-5.3726-12-12 0-6.62742 5.3726-12 12-12s12 5.37258 12 12z" fill="url(#a)"/><path d="m26.75 14.625c0 3.3137-3.75 5.625-6.75 5.625s-6.75-2.3113-6.75-5.625c0-1.5 3.375-2.25 6.75-2.25s6.75.75 6.75 2.25z" fill="#772622"/><path d="m24.0185 14.0618c-.6602-.2222-1.9998-.5618-4.0186-.5618s-3.3583.3396-4.0186.5618c-.2713.0913-.3776.3957-.2496.6517.0878.1756.2663.2865.4626.2865h7.6112c.1963 0 .3749-.1109.4627-.2865.128-.256.0216-.5604-.2497-.6517z" fill="#fff"/><path d="m22.2083 17.8282c.3297.186.3087.6418-.0335.8035-.6703.3169-1.4154.4933-2.1748.4933s-1.5045-.1764-2.1747-.4933c-.3422-.1617-.3632-.6175-.0336-.8035.6524-.3681 1.4058-.5782 2.2083-.5782s1.556.2101 2.2083.5782z" fill="#e45852"/><path clip-rule="evenodd" d="m14.1522 6.98615c.232-.27844.6458-.31606.9243-.08403l2.25 1.875c.2122.17688.2909.46776.1969.72755-.0941.25979-.3408.43285-.6171.43285-1.0404 0-2.556.33688-3.4021.86588-.3073.1921-.7122.0988-.9043-.2086-.1921-.3073-.0988-.71216.2085-.90431.5781-.36144 1.3362-.63512 2.1008-.81456.1539-.03612.2043-.23449.0828-.3357l-.7558-.62982c-.2784-.23202-.316-.64583-.084-.92426z" fill="#424242" fill-rule="evenodd"/><path clip-rule="evenodd" d="m25.8478 6.98615c-.232-.27844-.6458-.31606-.9243-.08403l-2.25 1.875c-.2122.17688-.2909.46776-.1969.72755.0941.25979.3408.43285.6171.43285 1.0404 0 2.556.33688 3.4021.86588.3073.1921.7122.0988.9043-.2086.1921-.3073.0988-.71216-.2085-.90431-.5781-.36144-1.3362-.63512-2.1008-.81456-.1539-.03612-.2043-.23449-.0828-.3357l.7558-.62982c.2784-.23202.316-.64583.084-.92426z" fill="#424242" fill-rule="evenodd"/><path d="m58 12c0 6.6274-5.3726 12-12 12-1.918 0-6.1153 0-9.0003 0-1.6568 0-2.9997-1.341-2.9997-2.9979 0-2.7836 0-6.8173 0-9.0021 0-6.62742 5.3726-12 12-12s12 5.37258 12 12z" fill="#887af9"/><path clip-rule="evenodd" d="m46 14c1.1046 0 2-.8954 2-2s-.8954-2-2-2-2 .8954-2 2 .8954 2 2 2zm8-2c0 1.1046-.8954 2-2 2s-2-.8954-2-2 .8954-2 2-2 2 .8954 2 2zm-14 2c1.1046 0 2-.8954 2-2s-.8954-2-2-2-2 .8954-2 2 .8954 2 2 2z" fill="#fff" fill-rule="evenodd"/></svg>

<svg width="66" height="50" viewBox="0 0 66 50" fill="none" xmlns="http://www.w3.org/2000/svg">
<rect width="66" height="50"/>
<path d="M8 38C8 31.3726 13.3726 26 20 26C21.918 26 26.1153 26 29.0003 26C30.6571 26 32 27.341 32 28.9979C32 31.7815 32 35.8152 32 38C32 44.6274 26.6274 50 20 50C13.3726 50 8 44.6274 8 38Z" fill="#7CDA00"/>
<path d="M19.2071 31H26C26.5523 31 27 31.4477 27 32V38.7929C27 39.2383 26.4614 39.4614 26.1464 39.1464L23.9497 36.9497C23.6987 36.6987 23.2941 36.6912 23.0339 36.9328L17.2062 42.3443C16.812 42.7103 16.1989 42.6989 15.8186 42.3186L15.6814 42.1814C15.3011 41.8011 15.2897 41.188 15.6557 40.7938L21.0672 34.9661C21.3088 34.7059 21.3013 34.3013 21.0503 34.0503L18.8536 31.8536C18.5386 31.5386 18.7617 31 19.2071 31Z" fill="white"/>
<path d="M58 38C58 31.3726 52.6274 26 46 26C44.082 26 39.8847 26 36.9997 26C35.3429 26 34 27.341 34 28.9979C34 31.7815 34 35.8152 34 38C34 44.6274 39.3726 50 46 50C52.6274 50 58 44.6274 58 38Z" fill="#FE8F59"/>
<path d="M43.2071 43H50C50.5523 43 51 42.5523 51 42V35.2071C51 34.7617 50.4614 34.5386 50.1464 34.8536L47.9497 37.0503C47.6987 37.3013 47.2941 37.3088 47.0339 37.0672L41.2062 31.6557C40.812 31.2897 40.1989 31.3011 39.8186 31.6814L39.6814 31.8186C39.3011 32.1989 39.2897 32.812 39.6557 33.2062L45.0672 39.0339C45.3088 39.2941 45.3013 39.6987 45.0503 39.9497L42.8536 42.1464C42.5386 42.4614 42.7617 43 43.2071 43Z" fill="white"/>
<path d="M8 12C8 18.6274 13.3726 24 20 24C21.918 24 26.1153 24 29.0003 24C30.6571 24 32 22.659 32 21.0021C32 18.2185 32 14.1848 32 12C32 5.37258 26.6274 0 20 0C13.3726 0 8 5.37258 8 12Z" fill="#ECEFFC"/>
<path d="M32 12C32 13.918 32 18.1153 32 21.0003C32 22.6571 30.659 24 29.0021 24C26.2185 24 22.1848 24 20 24C13.3726 24 8 18.6274 8 12C8 5.37258 13.3726 0 20 0C26.6274 0 32 5.37258 32 12Z" fill="#FFD764"/>
<path d="M32 12C32 13.918 32 18.1153 32 21.0003C32 22.6571 30.659 24 29.0021 24C26.2185 24 22.1848 24 20 24C13.3726 24 8 18.6274 8 12C8 5.37258 13.3726 0 20 0C26.6274 0 32 5.37258 32 12Z" fill="url(#paint0_radial)"/>
<path d="M26.75 14.625C26.75 17.9387 23 20.25 20 20.25C17 20.25 13.25 17.9387 13.25 14.625C13.25 13.125 16.625 12.375 20 12.375C23.375 12.375 26.75 13.125 26.75 14.625Z" fill="#772622"/>
<path d="M24.0185 14.0618C23.3583 13.8396 22.0187 13.5 19.9999 13.5C17.9811 13.5 16.6416 13.8396 15.9813 14.0618C15.71 14.1531 15.6037 14.4575 15.7317 14.7135C15.8195 14.8891 15.998 15 16.1943 15H23.8055C24.0018 15 24.1804 14.8891 24.2682 14.7135C24.3962 14.4575 24.2898 14.1531 24.0185 14.0618Z" fill="white"/>
<path d="M22.2083 17.8282C22.538 18.0142 22.517 18.47 22.1748 18.6317C21.5045 18.9486 20.7594 19.125 20 19.125C19.2406 19.125 18.4955 18.9486 17.8253 18.6317C17.4831 18.47 17.4621 18.0142 17.7917 17.8282C18.4441 17.4601 19.1975 17.25 20 17.25C20.8025 17.25 21.556 17.4601 22.2083 17.8282Z" fill="#E45852"/>
<path fill-rule="evenodd" clip-rule="evenodd" d="M14.1522 6.98615C14.3842 6.70771 14.798 6.67009 15.0765 6.90212L17.3265 8.77712C17.5387 8.954 17.6174 9.24488 17.5234 9.50467C17.4293 9.76446 17.1826 9.93752 16.9063 9.93752C15.8659 9.93752 14.3503 10.2744 13.5042 10.8034C13.1969 10.9955 12.792 10.9022 12.5999 10.5948C12.4078 10.2875 12.5011 9.88264 12.8084 9.69049C13.3865 9.32905 14.1446 9.05537 14.9092 8.87593C15.0631 8.83981 15.1135 8.64144 14.992 8.54023L14.2362 7.91041C13.9578 7.67839 13.9202 7.26458 14.1522 6.98615Z" fill="#424242"/>
<path fill-rule="evenodd" clip-rule="evenodd" d="M25.8478 6.98615C25.6158 6.70771 25.202 6.67009 24.9235 6.90212L22.6735 8.77712C22.4613 8.954 22.3826 9.24488 22.4766 9.50467C22.5707 9.76446 22.8174 9.93752 23.0937 9.93752C24.1341 9.93752 25.6497 10.2744 26.4958 10.8034C26.8031 10.9955 27.208 10.9022 27.4001 10.5948C27.5922 10.2875 27.4989 9.88264 27.1916 9.69049C26.6135 9.32905 25.8554 9.05537 25.0908 8.87593C24.9369 8.83981 24.8865 8.64144 25.008 8.54023L25.7638 7.91041C26.0422 7.67839 26.0798 7.26458 25.8478 6.98615Z" fill="#424242"/>
<path d="M58 12C58 18.6274 52.6274 24 46 24C44.082 24 39.8847 24 36.9997 24C35.3429 24 34 22.659 34 21.0021C34 18.2185 34 14.1848 34 12C34 5.37258 39.3726 0 46 0C52.6274 0 58 5.37258 58 12Z" fill="#887AF9"/>
<path fill-rule="evenodd" clip-rule="evenodd" d="M46 14C47.1046 14 48 13.1046 48 12C48 10.8954 47.1046 10 46 10C44.8954 10 44 10.8954 44 12C44 13.1046 44.8954 14 46 14ZM54 12C54 13.1046 53.1046 14 52 14C50.8954 14 50 13.1046 50 12C50 10.8954 50.8954 10 52 10C53.1046 10 54 10.8954 54 12ZM40 14C41.1046 14 42 13.1046 42 12C42 10.8954 41.1046 10 40 10C38.8954 10 38 10.8954 38 12C38 13.1046 38.8954 14 40 14Z" fill="white"/>
<defs>
<radialGradient id="paint0_radial" cx="0" cy="0" r="1" gradientUnits="userSpaceOnUse" gradientTransform="translate(24.125 4.875) rotate(124.563) scale(20.4916 26.6023)">
<stop stop-color="#FFD764"/>
<stop offset="1" stop-color="#FFB746"/>
</radialGradient>
</defs>
</svg>
